packages/ui/assets/svg/image/checklist.svg

<svg width="89" height="95" viewBox="0 0 89 95" fill="none" xmlns="http://www.w3.org/2000/svg">
<path d="M59.2167 16.6417V93.0578C59.2167 94.1053 58.3935 94.938 57.3578 94.938H2.09523C1.08611 94.938 0.236328 94.1053 0.236328 93.0578V16.6417C0.236328 15.621 1.05956 14.7615 2.09523 14.7615H57.3844C58.3935 14.7884 59.2167 15.621 59.2167 16.6417Z" fill="#585AFA"/>
<path d="M59.2167 35.9576V93.0605C59.2167 94.1065 58.3935 94.938 57.3578 94.938H2.09523C1.08611 94.938 0.236328 94.1065 0.236328 93.0605V67.285L59.2167 35.9576Z" fill="#3836BD"/>
<path d="M45.797 88.487H4.84424V20.2909H54.6089V79.3407L45.797 88.487Z" fill="#F5F5FD"/>
<path d="M46.3149 88.487V79.2713H54.6091L46.3149 88.487Z" fill="#AAAFD7"/>
<path fill-rule="evenodd" clip-rule="evenodd" d="M19.5894 36.4184C19.5894 36.1639 19.7068 35.9576 19.8516 35.9576H34.9937C35.1386 35.9576 35.256 36.1639 35.256 36.4184C35.256 36.6728 35.1386 36.8791 34.9937 36.8791H19.8516C19.7068 36.8791 19.5894 36.6728 19.5894 36.4184Z" fill="#92CDF5"/>
<path fill-rule="evenodd" clip-rule="evenodd" d="M19.5894 41.0262C19.5894 40.7717 19.6989 40.5654 19.834 40.5654H24.8741C25.0092 40.5654 25.1188 40.7717 25.1188 41.0262C25.1188 41.2807 25.0092 41.487 24.8741 41.487H19.834C19.6989 41.487 19.5894 41.2807 19.5894 41.0262Z" fill="#92CDF5"/>
<path fill-rule="evenodd" clip-rule="evenodd" d="M27.8833 41.0262C27.8833 40.7717 28.0044 40.5654 28.1538 40.5654H41.4364C41.5857 40.5654 41.7068 40.7717 41.7068 41.0262C41.7068 41.2807 41.5857 41.487 41.4364 41.487H28.1538C28.0044 41.487 27.8833 41.2807 27.8833 41.0262Z" fill="#92CDF5"/>
<path fill-rule="evenodd" clip-rule="evenodd" d="M21.4326 39.1831C21.4326 38.9286 21.5543 38.7223 21.7044 38.7223H46.9648C47.1149 38.7223 47.2365 38.9286 47.2365 39.1831C47.2365 39.4376 47.1149 39.6439 46.9648 39.6439H21.7044C21.5543 39.6439 21.4326 39.4376 21.4326 39.1831Z" fill="#92CDF5"/>
<path fill-rule="evenodd" clip-rule="evenodd" d="M38.9424 36.4184C38.9424 36.1639 39.0666 35.9576 39.2197 35.9576H50.6454C50.7986 35.9576 50.9228 36.1639 50.9228 36.4184C50.9228 36.6728 50.7986 36.8791 50.6454 36.8791H39.2197C39.0666 36.8791 38.9424 36.6728 38.9424 36.4184Z" fill="#92CDF5"/>
<path fill-rule="evenodd" clip-rule="evenodd" d="M10.3735 36.2262C10.3735 36.0778 10.4938 35.9576 10.6421 35.9576H16.5559C16.7043 35.9576 16.8245 36.0778 16.8245 36.2262V42.14C16.8245 42.2883 16.7043 42.4086 16.5559 42.4086H10.6421C10.4938 42.4086 10.3735 42.2883 10.3735 42.14V36.2262ZM10.9107 36.4948V41.8714H16.2873V36.4948H10.9107Z" fill="#3836BD"/>
<path fill-rule="evenodd" clip-rule="evenodd" d="M19.4849 36.1679C19.6601 36.398 19.6097 36.7221 19.3723 36.8919L14.3771 40.4643C14.1612 40.6187 13.8606 40.5939 13.6747 40.4064L12.3658 39.0862C12.1614 38.88 12.1681 38.5522 12.3809 38.3541C12.5937 38.156 12.9319 38.1626 13.1363 38.3688L14.1202 39.3612L18.7378 36.0588C18.9753 35.889 19.3097 35.9379 19.4849 36.1679Z" fill="#F2516C"/>
<path fill-rule="evenodd" clip-rule="evenodd" d="M21.4326 48.3988C21.4326 48.1443 21.5559 47.938 21.7081 47.938H31.2944C31.4466 47.938 31.5699 48.1443 31.5699 48.3988C31.5699 48.6533 31.4466 48.8596 31.2944 48.8596H21.7081C21.5559 48.8596 21.4326 48.6533 21.4326 48.3988Z" fill="#92CDF5"/>
<path fill-rule="evenodd" clip-rule="evenodd" d="M33.4126 48.3988C33.4126 48.1443 33.5303 47.938 33.6756 47.938H49.7379C49.8831 47.938 50.0008 48.1443 50.0008 48.3988C50.0008 48.6533 49.8831 48.8596 49.7379 48.8596H33.6756C33.5303 48.8596 33.4126 48.6533 33.4126 48.3988Z" fill="#92CDF5"/>
<path fill-rule="evenodd" clip-rule="evenodd" d="M10.3735 45.4419C10.3735 45.2935 10.4938 45.1733 10.6421 45.1733H16.5559C16.7043 45.1733 16.8245 45.2935 16.8245 45.4419V51.3557C16.8245 51.504 16.7043 51.6243 16.5559 51.6243H10.6421C10.4938 51.6243 10.3735 51.504 10.3735 51.3557V45.4419ZM10.9107 45.7105V51.0871H16.2873V45.7105H10.9107Z" fill="#3836BD"/>
<path fill-rule="evenodd" clip-rule="evenodd" d="M19.486 45.3863C19.6604 45.6182 19.6088 45.944 19.3708 46.114L14.3757 49.6805C14.1597 49.8346 13.8601 49.8093 13.6747 49.6212L12.3658 48.2935C12.1614 48.0862 12.1681 47.7566 12.3809 47.5573C12.5937 47.3581 12.9319 47.3647 13.1363 47.5721L14.1213 48.5712L18.7393 45.274C18.9774 45.104 19.3117 45.1543 19.486 45.3863Z" fill="#F2516C"/>
<path fill-rule="evenodd" clip-rule="evenodd" d="M19.5894 55.7713C19.5894 55.5168 19.7004 55.3105 19.8373 55.3105H27.6356C27.7725 55.3105 27.8835 55.5168 27.8835 55.7713C27.8835 56.0258 27.7725 56.2321 27.6356 56.2321H19.8373C19.7004 56.2321 19.5894 56.0258 19.5894 55.7713Z" fill="#92CDF5"/>
<path fill-rule="evenodd" clip-rule="evenodd" d="M19.5894 60.3792C19.5894 60.1247 19.7039 59.9184 19.8451 59.9184H35.0003C35.1415 59.9184 35.256 60.1247 35.256 60.3792C35.256 60.6336 35.1415 60.8399 35.0003 60.8399H19.8451C19.7039 60.8399 19.5894 60.6336 19.5894 60.3792Z" fill="#92CDF5"/>
<path fill-rule="evenodd" clip-rule="evenodd" d="M38.9424 60.3792C38.9424 60.1247 39.065 59.9184 39.2162 59.9184H47.8843C48.0355 59.9184 48.1581 60.1247 48.1581 60.3792C48.1581 60.6336 48.0355 60.8399 47.8843 60.8399H39.2162C39.065 60.8399 38.9424 60.6336 38.9424 60.3792Z" fill="#92CDF5"/>
<path fill-rule="evenodd" clip-rule="evenodd" d="M30.6479 55.7713C30.6479 55.5168 30.7686 55.3105 30.9173 55.3105H50.6531C50.8018 55.3105 50.9225 55.5168 50.9225 55.7713C50.9225 56.0258 50.8018 56.2321 50.6531 56.2321H30.9173C30.7686 56.2321 30.6479 56.0258 30.6479 55.7713Z" fill="#92CDF5"/>
<path fill-rule="evenodd" clip-rule="evenodd" d="M10.3735 54.6576C10.3735 54.5092 10.4938 54.389 10.6421 54.389H16.5559C16.7043 54.389 16.8245 54.5092 16.8245 54.6576V60.5714C16.8245 60.7197 16.7043 60.84 16.5559 60.84H10.6421C10.4938 60.84 10.3735 60.7197 10.3735 60.5714V54.6576ZM10.9107 54.9262V60.3028H16.2873V54.9262H10.9107Z" fill="#3836BD"/>
<path fill-rule="evenodd" clip-rule="evenodd" d="M19.486 54.602C19.6604 54.8339 19.6088 55.1597 19.3708 55.3297L14.3757 58.8962C14.1597 59.0503 13.8601 59.025 13.6747 58.8369L12.3658 57.5092C12.1614 57.3019 12.1681 56.9723 12.3809 56.773C12.5937 56.5738 12.9319 56.5804 13.1363 56.7878L14.1213 57.7869L18.7393 54.4897C18.9774 54.3197 19.3117 54.37 19.486 54.602Z" fill="#F2516C"/>
<path fill-rule="evenodd" clip-rule="evenodd" d="M19.5894 64.987C19.5894 64.7325 19.7068 64.5262 19.8516 64.5262H34.9937C35.1386 64.5262 35.256 64.7325 35.256 64.987C35.256 65.2415 35.1386 65.4478 34.9937 65.4478H19.8516C19.7068 65.4478 19.5894 65.2415 19.5894 64.987Z" fill="#92CDF5"/>
<path fill-rule="evenodd" clip-rule="evenodd" d="M19.5894 69.5948C19.5894 69.3404 19.6989 69.1341 19.834 69.1341H24.8741C25.0092 69.1341 25.1188 69.3404 25.1188 69.5948C25.1188 69.8493 25.0092 70.0556 24.8741 70.0556H19.834C19.6989 70.0556 19.5894 69.8493 19.5894 69.5948Z" fill="#92CDF5"/>
<path fill-rule="evenodd" clip-rule="evenodd" d="M27.8833 69.5948C27.8833 69.3404 28.0044 69.1341 28.1538 69.1341H41.4364C41.5857 69.1341 41.7068 69.3404 41.7068 69.5948C41.7068 69.8493 41.5857 70.0556 41.4364 70.0556H28.1538C28.0044 70.0556 27.8833 69.8493 27.8833 69.5948Z" fill="#92CDF5"/>
<path fill-rule="evenodd" clip-rule="evenodd" d="M21.4326 67.7517C21.4326 67.4972 21.5543 67.2909 21.7044 67.2909H46.9648C47.1149 67.2909 47.2365 67.4972 47.2365 67.7517C47.2365 68.0062 47.1149 68.2125 46.9648 68.2125H21.7044C21.5543 68.2125 21.4326 68.0062 21.4326 67.7517Z" fill="#92CDF5"/>
<path fill-rule="evenodd" clip-rule="evenodd" d="M38.9424 64.987C38.9424 64.7325 39.0666 64.5262 39.2197 64.5262H50.6454C50.7986 64.5262 50.9228 64.7325 50.9228 64.987C50.9228 65.2415 50.7986 65.4478 50.6454 65.4478H39.2197C39.0666 65.4478 38.9424 65.2415 38.9424 64.987Z" fill="#92CDF5"/>
<path fill-rule="evenodd" clip-rule="evenodd" d="M10.3735 63.8732C10.3735 63.7249 10.4938 63.6047 10.6421 63.6047H16.5559C16.7043 63.6047 16.8245 63.7249 16.8245 63.8732V69.7871C16.8245 69.9354 16.7043 70.0556 16.5559 70.0556H10.6421C10.4938 70.0556 10.3735 69.9354 10.3735 69.7871V63.8732ZM10.9107 64.1418V69.5185H16.2873V64.1418H10.9107Z" fill="#3836BD"/>
<path fill-rule="evenodd" clip-rule="evenodd" d="M19.4849 62.8934C19.6601 63.1235 19.6097 63.4476 19.3723 63.6174L14.3771 67.1898C14.1612 67.3442 13.8606 67.3194 13.6747 67.1319L12.3658 65.8117C12.1614 65.6055 12.1681 65.2778 12.3809 65.0796C12.5937 64.8815 12.9319 64.8881 13.1363 65.0943L14.1202 66.0867L18.7378 62.7843C18.9753 62.6145 19.3097 62.6634 19.4849 62.8934Z" fill="#F2516C"/>
<path d="M46.1599 11.9114H38.853C37.6215 11.9114 36.6363 10.8002 36.8553 9.55017C36.9374 9.05015 36.9647 8.55013 36.9647 8.0501C36.8553 4.16104 33.6534 0.966452 29.7947 0.938673C25.7445 0.883115 22.4605 4.2166 22.4605 8.30011C22.4605 8.66124 22.4878 9.02237 22.5426 9.35572C22.7341 10.7169 21.6942 11.9114 20.3259 11.9114H13.2653C12.1707 11.9392 11.2949 12.8281 11.2949 13.9393V20.1062C11.2949 20.884 11.7328 21.5785 12.3896 21.9118C12.6632 22.0507 12.9369 22.1341 13.2653 22.1341H46.1873C47.2819 22.1063 48.1577 21.2174 48.1577 20.1062V13.9393C48.1303 12.8281 47.2546 11.9114 46.1599 11.9114ZM29.7126 4.27216C31.9019 4.27216 33.6534 6.07779 33.6534 8.27234C33.6534 10.4947 31.8746 12.2725 29.7126 12.2725C27.5233 12.2725 25.7718 10.4669 25.7718 8.27234C25.7445 6.05001 27.5233 4.27216 29.7126 4.27216Z" fill="#FFC6C2"/>
<path d="M48.1578 14.0298V20.1286C48.1578 21.2275 47.2997 22.1066 46.2271 22.1341H13.9962C13.6745 22.1341 13.4063 22.0517 13.1382 21.9143L40.8643 11.9968H46.2271C47.2997 12.0243 48.1578 12.9309 48.1578 14.0298Z" fill="#FFA69B"/>
<path d="M63.6996 25.7427L62.9028 29.4475C62.9028 29.4475 67.0921 32.6023 69.3538 27.5951L66.7837 23.9772L63.6996 25.7427Z" fill="#FFC6C2"/>
<path d="M61.775 53.7606L58.2949 71.987L73.503 86.6439L75.8047 83.8044L66.5429 70.6079L69.0913 51.6243L61.775 53.7606Z" fill="#70BCE5"/>
<path d="M67.9095 52.5722L75.8049 49.7811L68.6415 87.5654L64.7461 87.0125L67.9095 52.5722Z" fill="#70BCE5"/>
<path d="M68.4324 54.389L66.5298 70.9772L64.7461 69.3701L68.4324 54.389Z" fill="#29A0C1"/>
<path d="M65.6675 78.3498L68.6879 86.6439L69.3538 82.6736L65.6675 78.3498Z" fill="#29A0C1"/>
<path d="M62.6561 27.4054C62.6561 27.4054 66.1834 32.1054 69.3005 26.7419L75.9996 29.396L78.5699 36.5843L74.6598 39.1278L73.402 35.1466L72.7184 41.7819L76.6011 51.1543L61.7264 54.389L57.789 36.1143L55.9296 36.9713L53.6875 32.686L58.9101 28.5666L62.6561 27.4054Z" fill="#585AFA"/>
<path d="M56.2307 37.064L53.9636 32.9415L52.2495 34.5107L53.2171 28.0212L56.4518 23.3934L53.383 21.2125L51.586 22.6753L51.0607 21.5051L50.2865 22.0104L51.7795 24.2977L48.1577 35.0427L48.9871 39.6439L56.2307 37.064Z" fill="#FFC6C2"/>
<path d="M57.8317 53.4674L54.6089 57.1537H59.2167L57.8317 53.4674Z" fill="#FFA69B"/>
<path d="M62.9028 27.0212L66.3031 27.6635L67.5107 24.3961L67.1293 23.9772L63.2842 25.6807L62.9028 27.0212Z" fill="#FFA69B"/>
<path d="M61.7292 22.8099L63.5494 26.5508L66.0388 26.7419L67.511 24.5301L65.5302 19.3694L61.0601 21.1442L61.7292 22.8099Z" fill="#FFC6C2"/>
<path d="M62.869 23.3833C63.0022 23.6273 62.7359 23.8936 62.2479 23.9601C61.7598 24.0267 61.2273 23.8936 61.0942 23.6495C60.9611 23.4055 61.2273 23.1393 61.7154 23.0727C62.2035 23.0062 62.6916 23.1393 62.869 23.3833Z" fill="#FFC6C2"/>
<path d="M66.1283 22.1341C66.3827 22.1341 66.589 21.9278 66.589 21.6733C66.589 21.4188 66.3827 21.2125 66.1283 21.2125C65.8738 21.2125 65.6675 21.4188 65.6675 21.6733C65.6675 21.9278 65.8738 22.1341 66.1283 22.1341Z" fill="#FFC6C2"/>
<path d="M65.3792 24.3895L64.6236 24.8436C64.3861 24.9855 64.1054 24.8436 63.9974 24.5314L63.8247 24.0206L65.4656 23.0556L65.6383 23.5665C65.7247 23.8787 65.6167 24.2476 65.3792 24.3895Z" fill="white"/>
<path d="M63.9015 21.2125L63.8247 23.9772L64.7463 23.5641L63.9015 21.2125Z" fill="#FFA69B"/>
<path d="M66.4019 21.8016C66.4019 21.8016 67.0215 21.2384 66.0077 18.9317C66.0077 18.9317 65.6697 18.4221 65.1065 18.5025C65.1065 18.5025 63.9801 16.6518 60.8823 18.0466C60.8823 18.0466 56.6863 19.8436 61.6145 23.0354C61.6145 23.0354 62.7128 23.3841 63.445 21.1847C63.6421 20.5678 64.2053 20.085 64.9094 19.9777C65.3036 19.9241 65.6979 19.9777 65.8387 20.3532L66.4019 21.8016Z" fill="#3836BD"/>
<path d="M73.5009 35.036L70.2754 41.8776L73.9144 51.6242L76.7264 50.7555L72.8117 41.5518L73.5009 35.036Z" fill="#3836BD"/>
<path d="M58.2949 53.4472L85.2133 42.4086L86.8636 46.4104L59.7017 57.1537L58.2949 53.4472Z" fill="#F2516C"/>
<path d="M85.0205 42.9069L85.8044 42.5759C86.8758 42.1071 88.104 42.6587 88.5482 43.7895C88.9924 44.9203 88.4698 46.2166 87.3984 46.6854L86.6145 47.0164L85.0205 42.9069Z" fill="#FFA69B"/>
<path d="M57.7855 36.0306L58.2953 31.3498L56.4521 36.8792L57.7855 36.0306Z" fill="#3836BD"/>
<path d="M52.7655 27.6635L50.9224 33.9823L51.8695 34.1145L52.7655 27.6635Z" fill="#FFA69B"/>
<path d="M86.8639 46.8664L59.597 57.1537L59.2168 56.2021L86.5108 46.0948L86.8639 46.8664Z" fill="#DB3E5F"/>
<path d="M73.4925 51.7585L76.4224 44.2923L74.4117 39.3502L78.4905 36.8792L81.3342 43.8406L77.3415 51.0411L74.8425 54.1764L71.8552 54.389L70.2754 52.9542L73.4925 51.7585Z" fill="#FFC6C2"/>
<path d="M73.9617 51.6243L72.0856 54.389L70.2754 52.881L73.9617 51.6243Z" fill="#FFA69B"/>
<path d="M73.6288 85.9028L74.1408 90.2351L73.04 93.5129L74.4992 94.938L78.5695 85.7318L75.088 83.8792L73.6288 85.9028Z" fill="#2C218A"/>
<path d="M65.1258 87.5654L64.6921 88.8406L63.8247 90.7909L64.6921 94.0164H66.8876L68.4325 91.591L67.3484 89.2407L67.4297 87.8655L65.1258 87.5654Z" fill="#2C218A"/>
<path d="M74.6989 84.8007L75.8047 88.7913L73.4394 93.0949L73.04 92.7819L74.2381 89.026L73.7466 85.8179L74.6989 84.8007Z" fill="#3836BD"/>
<path d="M65.3684 87.5654L64.7461 90.8947L65.0573 93.0948H66.0866L66.5892 90.8368L66.2541 87.7102L65.3684 87.5654Z" fill="#3836BD"/>
</svg>

<svg width="89" height="95" viewBox="0 0 89 95" fill="none" xmlns="http://www.w3.org/2000/svg">
  <path d="M59.22 16.64v76.42c0 1.05-.83 1.88-1.86 1.88H2.1c-1.01 0-1.86-.83-1.86-1.88V16.64c0-1.02.82-1.88 1.86-1.88h55.28c1.01.03 1.84.86 1.84 1.88z" fill="#585AFA"/>
  <path d="M59.22 35.96v57.1c0 1.05-.83 1.88-1.86 1.88H2.1c-1.01 0-1.86-.83-1.86-1.88V67.28l58.98-31.32z" fill="#3836BD"/>
  <path d="M45.8 88.49H4.84v-68.2h49.77v59.05L45.8 88.5z" fill="#F5F5FD"/>
  <path d="M46.31 88.49v-9.22h8.3l-8.3 9.22z" fill="#AAAFD7"/>
  <path fill-rule="evenodd" clip-rule="evenodd" d="M19.59 36.42c0-.26.12-.46.26-.46H35c.15 0 .27.2.27.46 0 .25-.12.46-.27.46H19.85c-.14 0-.26-.2-.26-.46zM19.59 41.03c0-.26.1-.46.24-.46h5.04c.14 0 .25.2.25.46 0 .25-.11.46-.25.46h-5.04c-.13 0-.24-.2-.24-.46zM27.88 41.03c0-.26.12-.46.27-.46h13.29c.15 0 .27.2.27.46 0 .25-.12.46-.27.46H28.15c-.15 0-.27-.2-.27-.46zM21.43 39.18c0-.25.12-.46.27-.46h25.26c.15 0 .28.2.28.46s-.13.46-.28.46H21.7c-.15 0-.27-.2-.27-.46zM38.94 36.42c0-.26.13-.46.28-.46h11.43c.15 0 .27.2.27.46 0 .25-.12.46-.27.46H39.22c-.15 0-.28-.2-.28-.46z" fill="#92CDF5"/>
  <path fill-rule="evenodd" clip-rule="evenodd" d="M10.37 36.23c0-.15.12-.27.27-.27h5.92c.14 0 .26.12.26.27v5.91c0 .15-.12.27-.26.27h-5.92a.27.27 0 01-.27-.27v-5.91zm.54.26v5.38h5.38V36.5H10.9z" fill="#3836BD"/>
  <path fill-rule="evenodd" clip-rule="evenodd" d="M19.48 36.17a.5.5 0 01-.1.72l-5 3.57a.55.55 0 01-.7-.05l-1.31-1.32a.5.5 0 01.01-.74c.21-.2.55-.19.76.02l.98 1 4.62-3.31a.55.55 0 01.74.1z" fill="#F2516C"/>
  <path fill-rule="evenodd" clip-rule="evenodd" d="M21.43 48.4c0-.26.13-.46.28-.46h9.58c.16 0 .28.2.28.46 0 .25-.12.46-.28.46h-9.58c-.15 0-.28-.2-.28-.46zM33.41 48.4c0-.26.12-.46.27-.46h16.06c.14 0 .26.2.26.46 0 .25-.12.46-.26.46H33.68c-.15 0-.27-.2-.27-.46z" fill="#92CDF5"/>
  <path fill-rule="evenodd" clip-rule="evenodd" d="M10.37 45.44c0-.15.12-.27.27-.27h5.92c.14 0 .26.12.26.27v5.92c0 .14-.12.26-.26.26h-5.92a.27.27 0 01-.27-.26v-5.92zm.54.27v5.38h5.38V45.7H10.9z" fill="#3836BD"/>
  <path fill-rule="evenodd" clip-rule="evenodd" d="M19.49 45.39c.17.23.12.55-.12.72l-5 3.57a.54.54 0 01-.7-.06l-1.3-1.33c-.2-.2-.2-.53.01-.73.21-.2.55-.2.76.01l.98 1 4.62-3.3a.54.54 0 01.75.12z" fill="#F2516C"/>
  <path fill-rule="evenodd" clip-rule="evenodd" d="M19.59 55.77c0-.25.11-.46.25-.46h7.8c.13 0 .24.2.24.46s-.1.46-.24.46h-7.8c-.14 0-.25-.2-.25-.46zM19.59 60.38c0-.26.11-.46.26-.46H35c.14 0 .26.2.26.46 0 .25-.12.46-.26.46H19.85c-.15 0-.26-.2-.26-.46zM38.94 60.38c0-.26.13-.46.28-.46h8.66c.16 0 .28.2.28.46 0 .25-.12.46-.28.46h-8.66c-.16 0-.28-.2-.28-.46zM30.65 55.77c0-.25.12-.46.27-.46h19.73c.15 0 .27.2.27.46s-.12.46-.27.46H30.92c-.15 0-.27-.2-.27-.46z" fill="#92CDF5"/>
  <path fill-rule="evenodd" clip-rule="evenodd" d="M10.37 54.66c0-.15.12-.27.27-.27h5.92c.14 0 .26.12.26.27v5.91c0 .15-.12.27-.26.27h-5.92a.27.27 0 01-.27-.27v-5.91zm.54.27v5.37h5.38v-5.37H10.9z" fill="#3836BD"/>
  <path fill-rule="evenodd" clip-rule="evenodd" d="M19.49 54.6c.17.23.12.56-.12.73l-5 3.57a.54.54 0 01-.7-.06l-1.3-1.33c-.2-.2-.2-.54.01-.74.21-.2.55-.19.76.02l.98 1 4.62-3.3a.54.54 0 01.75.11z" fill="#F2516C"/>
  <path fill-rule="evenodd" clip-rule="evenodd" d="M19.59 64.99c0-.26.12-.46.26-.46H35c.15 0 .27.2.27.46 0 .25-.12.46-.27.46H19.85c-.14 0-.26-.2-.26-.46zM19.59 69.6c0-.26.1-.47.24-.47h5.04c.14 0 .25.21.25.46 0 .26-.11.47-.25.47h-5.04c-.13 0-.24-.21-.24-.47zM27.88 69.6c0-.26.12-.47.27-.47h13.29c.15 0 .27.21.27.46 0 .26-.12.47-.27.47H28.15c-.15 0-.27-.21-.27-.47zM21.43 67.75c0-.25.12-.46.27-.46h25.26c.15 0 .28.2.28.46s-.13.46-.28.46H21.7c-.15 0-.27-.2-.27-.46zM38.94 64.99c0-.26.13-.46.28-.46h11.43c.15 0 .27.2.27.46 0 .25-.12.46-.27.46H39.22c-.15 0-.28-.2-.28-.46z" fill="#92CDF5"/>
  <path fill-rule="evenodd" clip-rule="evenodd" d="M10.37 63.87c0-.15.12-.27.27-.27h5.92c.14 0 .26.12.26.27v5.92c0 .15-.12.27-.26.27h-5.92a.27.27 0 01-.27-.27v-5.92zm.54.27v5.38h5.38v-5.38H10.9z" fill="#3836BD"/>
  <path fill-rule="evenodd" clip-rule="evenodd" d="M19.48 62.9a.5.5 0 01-.1.72l-5 3.57a.55.55 0 01-.7-.06l-1.31-1.32a.5.5 0 01.01-.73c.21-.2.55-.2.76.01l.98 1 4.62-3.3a.55.55 0 01.74.1z" fill="#F2516C"/>
  <path d="M46.16 11.91h-7.3a2.02 2.02 0 01-2-2.36A7.33 7.33 0 0029.8.94a7.3 7.3 0 00-7.26 8.42 2.23 2.23 0 01-2.21 2.55h-7.06c-1.1.03-1.98.92-1.98 2.03v6.17a2.02 2.02 0 001.98 2.02h32.92a2.02 2.02 0 001.97-2.02v-6.17a2.04 2.04 0 00-2-2.03zM29.71 4.27c2.2 0 3.94 1.8 3.94 4 0 2.22-1.78 4-3.94 4a3.97 3.97 0 01-3.94-4 3.94 3.94 0 013.94-4z" fill="#FFC6C2"/>
  <path d="M48.16 14.03v6.1c0 1.1-.86 1.98-1.93 2H14c-.33 0-.6-.08-.86-.22L40.86 12h5.37c1.07.02 1.93.93 1.93 2.03z" fill="#FFA69B"/>
  <path d="M63.7 25.74l-.8 3.7s4.2 3.16 6.45-1.84l-2.57-3.62-3.08 1.76z" fill="#FFC6C2"/>
  <path d="M61.77 53.76L58.3 72 73.5 86.64l2.3-2.84-9.26-13.2 2.55-18.98-7.32 2.14z" fill="#70BCE5"/>
  <path d="M67.9 52.57l7.9-2.79-7.16 37.79-3.9-.56 3.17-34.44z" fill="#70BCE5"/>
  <path d="M68.43 54.39l-1.9 16.59-1.78-1.61 3.68-14.98zM65.67 78.35l3.02 8.3.66-3.98-3.68-4.32z" fill="#29A0C1"/>
  <path d="M62.66 27.4s3.52 4.7 6.64-.66L76 29.4l2.57 7.18-3.91 2.55-1.26-3.98-.68 6.63 3.88 9.37-14.87 3.24-3.94-18.28-1.86.86-2.24-4.28 5.22-4.12 3.75-1.16z" fill="#585AFA"/>
  <path d="M56.23 37.06l-2.27-4.12-1.71 1.57.97-6.49 3.23-4.63-3.07-2.18-1.8 1.47-.52-1.17-.77.5 1.49 2.29-3.62 10.74.83 4.6 7.24-2.58z" fill="#FFC6C2"/>
  <path d="M57.83 53.47l-3.22 3.68h4.6l-1.38-3.68zM62.9 27.02l3.4.64 1.21-3.26-.38-.42-3.85 1.7-.38 1.34z" fill="#FFA69B"/>
  <path d="M61.73 22.81l1.82 3.74 2.49.2 1.47-2.22-1.98-5.16-4.47 1.77.67 1.67z" fill="#FFC6C2"/>
  <path d="M62.87 23.38c.13.25-.13.51-.62.58-.49.07-1.02-.07-1.16-.31-.13-.24.14-.51.63-.58.48-.06.97.07 1.15.31zM66.13 22.13a.46.46 0 100-.92.46.46 0 000 .92z" fill="#FFC6C2"/>
  <path d="M65.38 24.39l-.76.45c-.23.15-.51 0-.62-.3l-.18-.52 1.65-.96.17.5c.08.32-.02.69-.26.83z" fill="#fff"/>
  <path d="M63.9 21.21l-.08 2.77.93-.42-.85-2.35z" fill="#FFA69B"/>
  <path d="M66.4 21.8s.62-.56-.4-2.87c0 0-.33-.5-.9-.43 0 0-1.12-1.85-4.22-.45 0 0-4.2 1.8.73 4.99 0 0 1.1.34 1.84-1.86.2-.61.76-1.1 1.46-1.2.4-.06.79 0 .93.37l.56 1.45zM73.5 35.04l-3.22 6.84 3.63 9.74 2.82-.86-3.92-9.2.7-6.52z" fill="#3836BD"/>
  <path d="M58.3 53.45L85.2 42.4l1.65 4L59.7 57.15l-1.4-3.7z" fill="#F2516C"/>
  <path d="M85.02 42.9l.78-.32c1.08-.47 2.3.08 2.75 1.2a2.27 2.27 0 01-1.15 2.9l-.79.34-1.59-4.11z" fill="#FFA69B"/>
  <path d="M57.79 36.03l.5-4.68-1.84 5.53 1.34-.85z" fill="#3836BD"/>
  <path d="M52.77 27.66l-1.85 6.32.95.13.9-6.45z" fill="#FFA69B"/>
  <path d="M86.86 46.87L59.6 57.15l-.38-.95 27.3-10.1.34.77z" fill="#DB3E5F"/>
  <path d="M73.5 51.76l2.92-7.47-2-4.94 4.07-2.47 2.84 6.96-3.99 7.2-2.5 3.14-2.98.2-1.58-1.43 3.21-1.2z" fill="#FFC6C2"/>
  <path d="M73.96 51.62L72.1 54.4l-1.81-1.5 3.68-1.27z" fill="#FFA69B"/>
  <path d="M73.63 85.9l.51 4.34-1.1 3.27 1.46 1.43 4.07-9.2-3.48-1.86-1.46 2.02zM65.13 87.57l-.44 1.27-.87 1.95.87 3.23h2.2l1.54-2.43-1.08-2.35.08-1.37-2.3-.3z" fill="#2C218A"/>
  <path d="M74.7 84.8l1.1 4-2.36 4.3-.4-.32 1.2-3.75-.5-3.21.96-1.02zM65.37 87.57l-.62 3.32.3 2.2h1.04l.5-2.25-.34-3.13-.88-.14z" fill="#3836BD"/>
</svg>
